; generated by PrusaSlicer 2.9.3 on 2025-09-13 at 03:53:37 UTC


;
;
; Built by Cody Glen

; external perimeters extrusion width = 0.45mm
; perimeters extrusion width = 0.45mm
; infill extrusion width = 0.45mm
; solid infill extrusion width = 0.45mm
; top infill extrusion width = 0.40mm
; support material extrusion width = 0.35mm
; first layer extrusion width = 0.42mm

M73 P0 R74
M73 Q0 S75
M201 X1000 Y1000 Z200 E5000 ; sets maximum accelerations, mm/sec^2
M203 X200 Y200 Z12 E120 ; sets maximum feedrates, mm / sec
M204 S1250 T1250 ; sets acceleration (S) and retract acceleration (R), mm/sec^2
M205 X8.00 Y8.00 Z0.40 E4.50 ; sets the jerk limits, mm/sec
M205 S0 T0 ; sets the minimum extruding and travel feed rate, mm/sec

; printing object Olivia bear ring v2 v1.stl id:0 copy 0
; stop printing object Olivia bear ring v2 v1.stl id:0 copy 0
; printing object Olivia bear ring v2 v1.stl id:0 copy 1
; stop printing object Olivia bear ring v2 v1.stl id:0 copy 1

;TYPE:Custom
M862.3 P "MK3S" ; printer model check
M862.1 P0.4 ; nozzle diameter check
M115 U3.14.1 ; tell printer latest fw version
G90 ; use absolute coordinates
M83 ; extruder relative mode
M104 S255 ; set extruder temp
M140 S100 ; set bed temp
M190 S100 ; wait for bed temp
M109 S255 ; wait for extruder temp
G28 W ; home all without mesh bed level
G80 X73.3051 Y77.6855 W103.672 H54.8405 ; mesh bed levelling

G1 Z0.2 F720
G1 Y-3 F1000 ; go outside print area
G92 E0
G1 X60 E9 F1000 ; intro line
G1 X100 E12.5 F1000 ; intro line

G92 E0
M221 S95

; Don't change E values below. Excessive value can damage the printer.
M907 E430 ; set extruder motor current
G21 ; set units to millimeters
G90 ; use absolute coordinates
M83 ; use relative distances for extrusion

M900 K0.04 ; Filament gcode LA 1.5
M900 K20 ; Filament gcode LA 1.0




M107
;LAYER_CHANGE
;Z:0.2
;HEIGHT:0.2
G1 E-.8 F2100
G1 Z.6 F720
G1 X81.181 Y85.423 F10800
G1 Z.2 F720
G1 E.8 F2100
M204 S800
;TYPE:Skirt/Brim
;WIDTH:0.42
G1 F600
G1 X83.436 Y83.428 E.0944
G1 X84.808 Y82.423 E.05332
G1 X87.442 Y80.838 E.09639
G1 X90.248 Y79.575 E.09648
G1 X93.182 Y78.654 E.09642
G1 X94.905 Y78.284 E.05526
G1 X97.96 Y77.92 E.09646
G1 X150.532 Y77.874 E1.64836
G1 X153.734 Y78.077 E.1006
G1 X156.629 Y78.607 E.09228
M73 Q0 S74
G1 X158.207 Y79.042 E.05132
G1 X159.752 Y79.575 E.05124
G1 X162.672 Y80.899 E.10053
G1 X165.192 Y82.423 E.09234
G1 X166.514 Y83.389 E.05134
G1 X167.818 Y84.48 E.05331
G1 X168.958 Y85.561 E.04926
G1 X170.911 Y87.765 E.09233
G1 X172.739 Y90.399 E.10053
G1 X173.542 Y91.823 E.05126
G1 X174.254 Y93.297 E.05133
G1 X174.85 Y94.75 E.04924
G1 X175.726 Y97.562 E.09235
G1 X176.086 Y99.224 E.05332
G1 X176.328 Y100.843 E.05133
G1 X176.785 Y108.845 E.25131
G1 X176.788 Y117.212 E.26234
G1 X176.568 Y118.169 E.03079
G1 X174.24 Y122.961 E.16704
G1 X173.819 Y123.552 E.02275
G1 X171.38 Y125.991 E.10815
G1 X170.811 Y126.401 E.02199
G1 X161.497 Y131.058 E.3265
G1 X160.75 Y131.277 E.02441
G1 X150.785 Y132.329 E.31418
G1 X99.406 Y132.337 E1.61095
G1 X98.69 Y132.282 E.02252
M73 P0 R73
G1 X97.436 Y131.985 E.04041
G1 X96.547 Y131.59 E.0305
G1 X87.386 Y126.893 E.32279
G1 X84.647 Y125.227 E.10052
G1 X82.231 Y123.326 E.09639
G1 X80.013 Y121.102 E.09848
G1 X78.079 Y118.628 E.09846
G1 X76.458 Y115.938 E.09847
G1 X75.219 Y113.194 E.0944
G1 X74.643 Y111.524 E.05539
G1 X73.925 Y108.599 E.09443
G1 X73.548 Y105.548 E.09639
G1 X73.495 Y103.783 E.05537
G1 X73.679 Y100.777 E.09443
G1 X74.129 Y98.209 E.08174
G1 X74.681 Y96.113 E.06796
G1 X75.746 Y93.297 E.0944
G1 X76.519 Y91.709 E.05538
G1 X78.115 Y89.081 E.0964
G1 X79.97 Y86.709 E.09441
G1 X81.139 Y85.466 E.0535
M204 S1000
;WIPE_START
G1 F8640
G1 X81.181 Y85.423 E-.01388
G1 X83.436 Y83.428 E-.69521
G1 X83.754 Y83.195 E-.09091
;WIPE_END
G1 Z.6 F720
G1 X127.82 Y97.763 F10800
G1 Z.2 F720
G1 E.8 F2100
M204 S800
G1 F600
G1 X128.059 Y96.856 E.02941
G1 X129.044 Y94.258 E.08712
G1 X129.693 Y92.926 E.04646
G1 X131.145 Y90.526 E.08795
G1 X132.879 Y88.31 E.08822
G1 X133.894 Y87.232 E.04642
G1 X135.974 Y85.389 E.08713
G1 X137.167 Y84.511 E.04644
G1 X139.576 Y83.057 E.08822
G1 X142.133 Y81.905 E.08793
G1 X143.533 Y81.421 E.04645
G1 X146.288 Y80.746 E.08894
G1 X149.048 Y80.411 E.08717
G1 X150.994 Y80.38 E.06102
G1 X153.367 Y80.541 E.07457
G1 X156.098 Y81.042 E.08706
G1 X157.524 Y81.44 E.04642
G1 X160.123 Y82.425 E.08715
G1 X161.452 Y83.072 E.04635
G1 X163.854 Y84.526 E.08804
G1 X166.07 Y86.259 E.08821
G1 X167.149 Y87.275 E.04647
G1 X168.992 Y89.355 E.08713
G1 X169.869 Y90.548 E.04643
G1 X171.318 Y92.946 E.08785
G1 X172.476 Y95.514 E.08833
G1 X172.959 Y96.914 E.04643
G1 X173.63 Y99.646 E.08821
G1 X173.888 Y101.533 E.05972
G1 X174.015 Y103.911 E.07467
G1 X173.847 Y106.685 E.08714
G1 X173.624 Y108.149 E.04643
G1 X172.958 Y110.85 E.08722
G1 X172.477 Y112.244 E.04624
G1 X171.334 Y114.784 E.08733
G1 X170.608 Y116.071 E.04633
G1 X169.029 Y118.359 E.08716
G1 X168.081 Y119.496 E.04642
G1 X166.116 Y121.461 E.08713
G1 X165.014 Y122.381 E.04501
G1 X162.652 Y124.012 E.09
G1 X160.168 Y125.316 E.08796
G1 X158.824 Y125.873 E.04562
G1 X156.157 Y126.705 E.0876
G1 X153.891 Y127.133 E.07231
M73 P1 R73
M73 Q1 S74
G1 X153.541 Y128.136 E.03331
G1 X152.979 Y128.896 E.02964
G1 X152.426 Y129.307 E.0216
G1 X151.82 Y129.603 E.02115
G1 X151.14 Y129.789 E.0221
G1 X150.432 Y129.845 E.02227
G1 X149.774 Y129.774 E.02075
G1 X149.14 Y129.587 E.02073
G1 X148.54 Y129.285 E.02106
G1 X148.019 Y128.894 E.02042
G1 X147.458 Y128.136 E.02957
G1 X147.108 Y127.133 E.03331
G1 X144.846 Y126.705 E.07218
G1 X142.176 Y125.873 E.08769
G1 X139.599 Y124.716 E.08857
G1 X138.349 Y124.012 E.04498
G1 X135.986 Y122.381 E.09003
G1 X134.884 Y121.461 E.04501
G1 X132.919 Y119.496 E.08713
G1 X131.971 Y118.359 E.04642
G1 X130.392 Y116.072 E.08714
G1 X129.665 Y114.781 E.04646
G1 X128.516 Y112.226 E.08784
G1 X127.676 Y109.538 E.0883
G1 X127.366 Y108.092 E.04637
G1 X127.03 Y105.327 E.08733
G1 X126.985 Y103.85 E.04633
G1 X127.153 Y101.076 E.08714
G1 X127.565 Y98.732 E.07462
G1 X127.805 Y97.821 E.02954
M204 S1000
G1 X128.169 Y97.916 F10800
M204 S800
G1 F600
G1 X128.417 Y96.974 E.03054
G1 X129.391 Y94.407 E.08609
G1 X130.024 Y93.106 E.04536
G1 X131.459 Y90.736 E.08687
G1 X133.165 Y88.556 E.08679
G1 X134.156 Y87.503 E.04534
G1 X136.211 Y85.682 E.08609
G1 X137.376 Y84.825 E.04535
G1 X139.746 Y83.394 E.0868
G1 X142.272 Y82.255 E.08688
G1 X143.64 Y81.783 E.04537
G1 X146.35 Y81.118 E.08749
G1 X149.077 Y80.787 E.08613
G1 X150.475 Y80.743 E.04386
G1 X151.923 Y80.787 E.04542
G1 X154.675 Y81.123 E.08693
G1 X157.407 Y81.798 E.08824
G1 X159.974 Y82.771 E.08607
G1 X161.271 Y83.403 E.04524
G1 X163.645 Y84.839 E.08699
G1 X165.825 Y86.545 E.08679
G1 X166.878 Y87.537 E.04536
G1 X168.698 Y89.592 E.08607
G1 X169.556 Y90.757 E.04537
G1 X170.987 Y93.127 E.0868
G1 X172.125 Y95.653 E.08687
G1 X172.597 Y97.02 E.04534
G1 X173.26 Y99.719 E.08714
G1 X173.513 Y101.567 E.05848
G1 X173.638 Y103.905 E.07341
G1 X173.472 Y106.645 E.08607
G1 X173.254 Y108.075 E.04535
G1 X172.596 Y110.744 E.08619
G1 X172.126 Y112.105 E.04515
G1 X170.997 Y114.614 E.08627
G1 X170.288 Y115.871 E.04525
G1 X168.729 Y118.131 E.08608
G1 X167.802 Y119.242 E.04537
G1 X165.861 Y121.183 E.08607
G1 X164.777 Y122.088 E.04428
G1 X162.461 Y123.686 E.08822
G1 X160.008 Y124.974 E.08687
G1 X158.695 Y125.518 E.04456
G1 X156.061 Y126.34 E.08652
G1 X153.587 Y126.796 E.07888
G1 X153.201 Y127.971 E.03878
G1 X152.73 Y128.611 E.02492
G1 X152.242 Y128.977 E.01913
G1 X151.7 Y129.245 E.01896
G1 X151.091 Y129.415 E.01982
G1 X150.453 Y129.468 E.02007
G1 X149.863 Y129.407 E.0186
G1 X149.263 Y129.231 E.01961
G1 X148.726 Y128.957 E.0189
G1 X148.269 Y128.611 E.01797
G1 X147.799 Y127.971 E.0249
G1 X147.412 Y126.796 E.03879
G1 X144.942 Y126.341 E.07875
G1 X142.304 Y125.518 E.08664
G1 X139.769 Y124.379 E.08714
G1 X138.539 Y123.686 E.04427
G1 X136.223 Y122.088 E.08822
G1 X135.139 Y121.183 E.04428
G1 X133.198 Y119.242 E.08607
G1 X132.271 Y118.131 E.04537
G1 X130.712 Y115.871 E.08608
G1 X130.001 Y114.611 E.04536
G1 X128.866 Y112.087 E.08677
G1 X128.041 Y109.442 E.08687
G1 X127.738 Y108.03 E.04528
G1 X127.406 Y105.299 E.08626
G1 X127.362 Y103.856 E.04527
G1 X127.528 Y101.116 E.08607
G1 X127.934 Y98.811 E.07338
G1 X128.154 Y97.974 E.02713
M204 S1000
G1 X128.518 Y98.07 F10800
M204 S800
G1 F600
G1 X128.776 Y97.091 E.03174
G1 X129.737 Y94.556 E.085
G1 X130.355 Y93.287 E.04426
G1 X131.772 Y90.945 E.08583
G1 X133.451 Y88.802 E.08536
G1 X134.419 Y87.773 E.0443
G1 X136.448 Y85.975 E.085
G1 X137.586 Y85.138 E.04429
G1 X139.926 Y83.725 E.08571
G1 X142.411 Y82.606 E.08545
G1 X143.747 Y82.145 E.04431
G1 X146.412 Y81.49 E.08605
G1 X149.106 Y81.163 E.08509
G1 X150.972 Y81.134 E.05851
G1 X153.264 Y81.289 E.07203
G1 X155.929 Y81.777 E.08495
G1 X157.289 Y82.156 E.04427
G1 X159.824 Y83.118 E.08501
G1 X161.091 Y83.734 E.04417
G1 X163.435 Y85.153 E.08591
G1 X165.579 Y86.832 E.08538
G1 X166.607 Y87.8 E.04427
G1 X168.405 Y89.829 E.085
G1 X169.242 Y90.966 E.04427
G1 X170.655 Y93.307 E.08573
G1 X171.775 Y95.792 E.08546
G1 X172.235 Y97.127 E.04427
G1 X172.888 Y99.782 E.08573
G1 X173.137 Y101.601 E.05757
G1 X173.26 Y103.899 E.07216
G1 X173.097 Y106.605 E.085
G1 X172.884 Y108.002 E.04431
G1 X172.235 Y110.637 E.08509
G1 X171.776 Y111.966 E.04409
G1 X170.661 Y114.444 E.0852
G1 X169.968 Y115.671 E.04418
G1 X168.428 Y117.903 E.08502
G1 X167.524 Y118.987 E.04426
G1 X165.607 Y120.905 E.08503
G1 X164.54 Y121.795 E.04357
G1 X162.271 Y123.361 E.08644
G1 X159.848 Y124.633 E.0858
G1 X157.275 Y125.609 E.08628
G1 X154.62 Y126.265 E.08575
G1 X153.251 Y126.463 E.04337
M73 Q1 S73
G1 X153.069 Y127.303 E.02695
G1 X152.861 Y127.807 E.0171
G1 X152.481 Y128.326 E.02017
G1 X152.031 Y128.664 E.01765
G1 X151.552 Y128.898 E.01672
G1 X151.008 Y129.047 E.01768
G1 X150.472 Y129.091 E.01686
G1 X149.416 Y128.885 E.03373
G1 X148.519 Y128.327 E.03312
G1 X148.138 Y127.807 E.02021
G1 X147.931 Y127.303 E.01708
G1 X147.749 Y126.463 E.02695
G1 X146.38 Y126.265 E.04337
G1 X143.725 Y125.609 E.08575
G1 X141.165 Y124.639 E.08584
G1 X138.729 Y123.361 E.08625
G1 X136.46 Y121.795 E.08644
G1 X135.393 Y120.905 E.04357
G1 X133.476 Y118.988 E.085
G1 X132.572 Y117.903 E.04428
G1 X131.032 Y115.671 E.08502
G1 X130.338 Y114.441 E.04428
G1 X129.217 Y111.948 E.08571
G1 X128.405 Y109.346 E.08546
G1 X128.109 Y107.968 E.04419
G1 X127.782 Y105.27 E.08521
G1 X127.739 Y103.862 E.04417
G1 X127.903 Y101.156 E.085
G1 X128.302 Y98.89 E.07214
G1 X128.503 Y98.128 E.02471
M204 S1000
G1 X128.867 Y98.224 F10800
M204 S800
G1 F600
G1 X129.134 Y97.209 E.03291
G1 X130.083 Y94.706 E.08393
G1 X130.686 Y93.467 E.0432
G1 X132.08 Y91.164 E.08441
G1 X133.737 Y89.047 E.08429
G1 X134.682 Y88.044 E.04321
G1 X136.685 Y86.269 E.08391
G1 X137.795 Y85.452 E.04321
G1 X140.097 Y84.062 E.08432
G1 X142.551 Y82.956 E.0844
G1 X143.853 Y82.507 E.04318
G1 X146.474 Y81.862 E.08463
G1 X149.134 Y81.539 E.08402
G1 X150.487 Y81.497 E.04244
G1 X151.866 Y81.539 E.04326
G1 X154.529 Y81.863 E.08411
G1 X157.171 Y82.514 E.08532
G1 X159.675 Y83.464 E.08397
G1 X160.911 Y84.066 E.04311
G1 X163.216 Y85.46 E.08446
G1 X165.333 Y87.118 E.08431
G1 X166.337 Y88.062 E.04321
G1 X168.112 Y90.066 E.08394
G1 X168.928 Y91.176 E.0432
G1 X170.319 Y93.477 E.0843
G1 X171.424 Y95.931 E.08438
G1 X171.874 Y97.234 E.04322
G1 X172.516 Y99.844 E.08427
G1 X172.762 Y101.636 E.05671
G1 X172.883 Y103.893 E.07087
G1 X172.722 Y106.566 E.08396
G1 X172.514 Y107.928 E.0432
G1 X171.873 Y110.53 E.08402
G1 X171.425 Y111.827 E.04302
G1 X170.324 Y114.274 E.08413
G1 X169.649 Y115.471 E.04309
G1 X168.128 Y117.675 E.08396
M73 P1 R72
G1 X167.246 Y118.733 E.04319
G1 X165.353 Y120.626 E.08394
G1 X164.303 Y121.501 E.04285
G1 X162.081 Y123.035 E.08466
G1 X159.688 Y124.291 E.08474
G1 X157.158 Y125.251 E.08485
G1 X154.547 Y125.895 E.08432
G1 X152.874 Y126.137 E.053
G1 X152.708 Y127.194 E.03355
G1 X152.522 Y127.642 E.01521
G1 X152.23 Y128.044 E.01558
M73 P2 R72
G1 X151.432 Y128.54 E.02946
G1 X150.46 Y128.714 E.03096
G1 X149.568 Y128.54 E.0285
G1 X148.77 Y128.044 E.02946
G1 X148.478 Y127.642 E.01558
G1 X148.292 Y127.194 E.01521
G1 X148.126 Y126.137 E.03355
M73 Q2 S73
G1 X146.453 Y125.895 E.053
G1 X143.842 Y125.251 E.08432
G1 X141.315 Y124.293 E.08473
G1 X138.919 Y123.035 E.08485
G1 X136.697 Y121.501 E.08466
G1 X135.647 Y120.626 E.04285
G1 X133.754 Y118.733 E.08394
G1 X132.872 Y117.675 E.04319
G1 X131.351 Y115.471 E.08396
G1 X130.674 Y114.271 E.0432
G1 X129.572 Y111.819 E.08429
G1 X128.77 Y109.25 E.08438
G1 X128.481 Y107.906 E.0431
G1 X128.158 Y105.242 E.08414
G1 X128.117 Y103.868 E.0431
G1 X128.278 Y101.195 E.08396
G1 X128.671 Y98.969 E.07087
G1 X128.852 Y98.282 E.02228
M204 S1000
G1 X129.216 Y98.378 F10800
M204 S800
G1 F600
G1 X129.492 Y97.327 E.03407
G1 X130.429 Y94.855 E.08289
G1 X131.018 Y93.647 E.04214
G1 X132.387 Y91.383 E.08295
G1 X134.023 Y89.293 E.08322
G1 X134.944 Y88.315 E.04212
G1 X136.923 Y86.562 E.08289
G1 X138.005 Y85.766 E.04212
G1 X140.277 Y84.393 E.08323
G1 X142.69 Y83.307 E.08297
G1 X143.96 Y82.868 E.04213
G1 X146.537 Y82.234 E.08321
G1 X149.163 Y81.915 E.08294
G1 X150.95 Y81.888 E.05604
G1 X153.162 Y82.036 E.06951
G1 X155.759 Y82.512 E.08278
G1 X157.054 Y82.873 E.04215
G1 X159.525 Y83.81 E.08286
G1 X160.73 Y84.397 E.04203
G1 X162.998 Y85.767 E.08308
G1 X165.087 Y87.404 E.08321
G1 X166.066 Y88.325 E.04214
G1 X167.819 Y90.303 E.08287
G1 X168.615 Y91.385 E.04212
G1 X169.988 Y93.657 E.08323
G1 X171.074 Y96.07 E.08297
G1 X171.512 Y97.34 E.04212
G1 X172.145 Y99.907 E.0829
G1 X172.386 Y101.67 E.05579
G1 X172.506 Y103.888 E.06965
G1 X172.347 Y106.526 E.08286
G1 X172.145 Y107.854 E.04212
G1 X171.511 Y110.423 E.08297
G1 X171.075 Y111.688 E.04195
G1 X169.987 Y114.104 E.08308
G1 X169.329 Y115.271 E.04201
G1 X167.827 Y117.447 E.0829
G1 X166.967 Y118.479 E.04212
G1 X165.098 Y120.348 E.08287
G1 X164.066 Y121.208 E.04212
G1 X161.891 Y122.709 E.08286
G1 X160.72 Y123.369 E.04215
G1 X158.31 Y124.454 E.08287
G1 X157.04 Y124.893 E.04213
G1 X154.475 Y125.525 E.08283
G1 X152.502 Y125.809 E.0625
G1 X152.489 Y126.448 E.02004
G1 X152.354 Y127.064 E.01977
G1 X151.978 Y127.762 E.02486
G1 X151.284 Y128.193 E.02561
G1 X150.479 Y128.337 E.02564
G1 X149.716 Y128.193 E.02435
G1 X149.022 Y127.762 E.02561
G1 X148.646 Y127.064 E.02486
G1 X148.511 Y126.448 E.01977
G1 X148.498 Y125.809 E.02004
G1 X146.525 Y125.525 E.0625
G1 X143.96 Y124.893 E.08283
G1 X142.69 Y124.454 E.04213
G1 X140.279 Y123.37 E.08288
G1 X139.109 Y122.709 E.04213
G1 X136.934 Y121.208 E.08286
G1 X135.902 Y120.348 E.04212
G1 X134.033 Y118.479 E.08287
G1 X133.172 Y117.447 E.04214
G1 X131.671 Y115.271 E.08288
G1 X131.011 Y114.101 E.04212
G1 X129.922 Y111.68 E.08323
G1 X129.135 Y109.154 E.08296
G1 X128.853 Y107.843 E.04205
G1 X128.534 Y105.213 E.08307
G1 X128.494 Y103.873 E.04203
G1 X128.653 Y101.235 E.08286
G1 X129.04 Y99.048 E.06964
G1 X129.201 Y98.436 E.01984
M204 S1000
;WIPE_START
G1 F8640
G1 X129.216 Y98.378 E-.01383
G1 X129.492 Y97.327 E-.25091
G1 X130.314 Y95.16 E-.53526
;WIPE_END
G1 Z.6 F720
G1 X122.63 Y99.646 F10800
G1 Z.2 F720
G1 E.8 F2100
M204 S800
G1 F600
G1 X122.888 Y101.533 E.05972
G1 X123.015 Y103.911 E.07467
G1 X122.847 Y106.685 E.08714
G1 X122.624 Y108.149 E.04643
G1 X121.958 Y110.85 E.08722
G1 X121.477 Y112.244 E.04624
G1 X120.334 Y114.784 E.08733
G1 X119.608 Y116.071 E.04633
G1 X118.029 Y118.359 E.08716
G1 X117.081 Y119.496 E.04642
G1 X115.116 Y121.461 E.08713
G1 X114.014 Y122.381 E.04501
G1 X111.652 Y124.012 E.09
G1 X109.168 Y125.316 E.08796
G1 X107.824 Y125.873 E.04562
G1 X105.157 Y126.705 E.0876
G1 X102.892 Y127.133 E.07227
G1 X102.542 Y128.136 E.03331
G1 X101.979 Y128.896 E.02966
G1 X101.426 Y129.307 E.0216
G1 X100.82 Y129.603 E.02115
G1 X100.141 Y129.789 E.02207
G1 X99.432 Y129.845 E.0223
G1 X98.774 Y129.774 E.02075
G1 X98.14 Y129.587 E.02073
G1 X97.54 Y129.285 E.02106
G1 X97.019 Y128.894 E.02042
G1 X96.459 Y128.136 E.02955
G1 X96.109 Y127.133 E.03331
G1 X93.846 Y126.705 E.07221
G1 X91.176 Y125.873 E.08769
G1 X88.599 Y124.716 E.08857
G1 X87.349 Y124.012 E.04498
G1 X84.986 Y122.381 E.09003
G1 X83.884 Y121.461 E.04501
G1 X81.919 Y119.496 E.08713
G1 X80.971 Y118.359 E.04642
G1 X79.392 Y116.072 E.08714
G1 X78.665 Y114.781 E.04646
G1 X77.516 Y112.226 E.08784
