; generated by PrusaSlicer 2.9.2 on 2025-09-12 at 04:19:00 UTC


;
;
; Built by Cody Glen

; external perimeters extrusion width = 0.45mm
; perimeters extrusion width = 0.45mm
; infill extrusion width = 0.45mm
; solid infill extrusion width = 0.45mm
; top infill extrusion width = 0.40mm
; support material extrusion width = 0.35mm
; first layer extrusion width = 0.42mm

M73 P0 R8
M73 Q0 S8
M201 X1000 Y1000 Z200 E5000 ; sets maximum accelerations, mm/sec^2
M203 X200 Y200 Z12 E120 ; sets maximum feedrates, mm / sec
M204 S1250 T1250 ; sets acceleration (S) and retract acceleration (R), mm/sec^2
M205 X8.00 Y8.00 Z0.40 E4.50 ; sets the jerk limits, mm/sec
M205 S0 T0 ; sets the minimum extruding and travel feed rate, mm/sec

; printing object toucan v1.stl id:0 copy 0
; stop printing object toucan v1.stl id:0 copy 0

;TYPE:Custom
M862.3 P "MK3S" ; printer model check
M862.1 P0.4 ; nozzle diameter check
M115 U3.14.0 ; tell printer latest fw version
G90 ; use absolute coordinates
M83 ; extruder relative mode
M104 S210 ; set extruder temp
M140 S60 ; set bed temp
M190 S60 ; wait for bed temp
M109 S210 ; wait for extruder temp
G28 W ; home all without mesh bed level
G80 X111.208 Y86.6175 W27.544 H36.765 ; mesh bed levelling

G1 Z0.2 F720
G1 Y-3 F1000 ; go outside print area
G92 E0
G1 X60 E9 F1000 ; intro line
G1 X100 E12.5 F1000 ; intro line

G92 E0
M221 S95

; Don't change E values below. Excessive value can damage the printer.
M907 E430 ; set extruder motor current
G21 ; set units to millimeters
G90 ; use absolute coordinates
M83 ; use relative distances for extrusion

M900 K0.05 ; Filament gcode LA 1.5
M900 K30 ; Filament gcode LA 1.0




M107
;LAYER_CHANGE
;Z:0.2
;HEIGHT:0.2
G1 E-.8 F2100
M73 P1 R8
M73 Q1 S8
G1 Z.6 F720
G1 X117.256 Y91.88 F10800
G1 Z.2 F720
G1 E.8 F2100
M204 S800
;TYPE:Skirt/Brim
;WIDTH:0.42
G1 F600
G1 X118.57 Y90.288 E.06472
G1 X119.918 Y89.114 E.05605
G1 X121.395 Y88.177 E.05484
G1 X123.331 Y87.359 E.0659
G1 X125.14 Y86.936 E.05825
G1 X126.978 Y86.807 E.05777
G1 X128.165 Y86.876 E.03728
G1 X129.713 Y87.152 E.0493
G1 X130.876 Y87.507 E.03813
G1 X132.029 Y87.998 E.03929
G1 X133.345 Y88.754 E.04759
G1 X134.334 Y89.489 E.03864
G1 X135.47 Y90.567 E.0491
G1 X136.256 Y91.513 E.03856
G1 X137.109 Y92.836 E.04936
G1 X137.654 Y93.959 E.03914
G1 X138.064 Y95.098 E.03796
G1 X138.415 Y96.621 E.049
G1 X138.55 Y97.913 E.04073
G1 X138.525 Y99.437 E.04779
M73 Q2 S8
G1 X138.37 Y100.606 E.03697
G1 X138.048 Y101.922 E.04248
G1 X137.497 Y103.364 E.0484
M73 P2 R8
G1 X136.774 Y104.698 E.04757
G1 X127.252 Y119.476 E.55121
G1 X126.339 Y120.567 E.04461
G1 X125.579 Y121.174 E.0305
G1 X124.716 Y121.661 E.03107
G1 X122.584 Y122.523 E.0721
G1 X121.276 Y122.9 E.04268
G1 X119.878 Y123.128 E.04441
G1 X118.57 Y123.194 E.04106
G1 X117.447 Y123.125 E.03528
G1 X116.276 Y122.893 E.03743
G1 X115.158 Y122.473 E.03745
G1 X114.307 Y122 E.03053
G1 X113.453 Y121.345 E.03375
G1 X112.732 Y120.579 E.03298
G1 X112.134 Y119.677 E.03393
G1 X111.712 Y118.684 E.03383
G1 X111.504 Y117.811 E.02814
G1 X111.396 Y116.583 E.03865
G1 X111.44 Y115.879 E.02212
G1 X115.709 Y95.099 E.66515
G1 X116.353 Y93.441 E.05577
M73 P3 R8
M73 Q3 S8
G1 X117.226 Y91.932 E.05466
M204 S1000
G1 X117.551 Y92.121 F10800
M204 S800
G1 F600
G1 X117.563 Y92.099 E.00079
G1 X118.842 Y90.548 E.06303
G1 X120.144 Y89.416 E.0541
G1 X121.567 Y88.513 E.05284
G1 X123.452 Y87.717 E.06416
G1 X125.197 Y87.309 E.05619
G1 X126.968 Y87.184 E.05567
G1 X128.117 Y87.25 E.03609
G1 X129.628 Y87.52 E.04813
G1 X130.746 Y87.861 E.03665
G1 X131.858 Y88.334 E.03789
G1 X133.141 Y89.072 E.04641
G1 X134.094 Y89.78 E.03722
G1 X135.197 Y90.827 E.04768
G1 X135.954 Y91.739 E.03716
G1 X136.782 Y93.024 E.04793
G1 X137.306 Y94.106 E.03769
G1 X137.701 Y95.201 E.0365
G1 X138.043 Y96.687 E.04781
G1 X138.173 Y97.932 E.03925
G1 X138.148 Y99.412 E.04641
G1 X138 Y100.532 E.03542
G1 X137.686 Y101.816 E.04145
G1 X137.154 Y103.206 E.04667
G1 X136.455 Y104.497 E.04603
M73 Q4 S8
G1 X126.935 Y119.272 E.5511
G1 X126.084 Y120.289 E.04158
M73 P4 R8
G1 X125.373 Y120.859 E.02857
G1 X124.566 Y121.315 E.02906
G1 X122.454 Y122.169 E.07143
G1 X121.189 Y122.534 E.04128
G1 X119.839 Y122.753 E.04288
G1 X118.567 Y122.817 E.03993
G1 X117.499 Y122.752 E.03355
G1 X116.389 Y122.533 E.03547
G1 X115.31 Y122.127 E.03615
G1 X114.516 Y121.686 E.02848
G1 X113.711 Y121.069 E.0318
G1 X113.031 Y120.349 E.03105
G1 X112.464 Y119.495 E.03214
G1 X112.068 Y118.561 E.03181
G1 X111.877 Y117.758 E.02588
G1 X111.772 Y116.554 E.03789
G1 X111.81 Y115.954 E.01885
G1 X115.821 Y96.185 E.63247
G1 X116.088 Y95.15 E.03351
M73 P5 R8
M73 Q5 S8
G1 X116.715 Y93.559 E.05362
G1 X117.521 Y92.172 E.0503
M204 S1000
;WIPE_START
G1 F8640
G1 X117.551 Y92.121 E-.01366
G1 X117.563 Y92.099 E-.00579
G1 X118.842 Y90.548 E-.46419
G1 X119.876 Y89.649 E-.31636
;WIPE_END
G1 Z.6 F720
G1 X119.569 Y93.62 F10800
G1 Z.2 F720
G1 E.8 F2100
M204 S800
G1 F600
G1 X120.097 Y92.873 E.02868
G1 X121.239 Y91.725 E.05077
G1 X122.344 Y90.936 E.04257
G1 X123.852 Y90.212 E.05245
G1 X125.499 Y89.784 E.05336
G1 X126.386 Y89.689 E.02797
G1 X128.253 Y89.781 E.05861
G1 X129.94 Y90.219 E.05465
G1 X131.476 Y90.964 E.05353
G1 X132.843 Y91.994 E.05367
G1 X133.438 Y92.596 E.02654
G1 X134.422 Y93.921 E.05175
G1 X135.15 Y95.429 E.0525
G1 X135.405 Y96.237 E.02657
G1 X135.681 Y97.997 E.05586
G1 X135.612 Y99.691 E.05316
G1 X135.475 Y100.445 E.02403
G1 X135.023 Y101.862 E.04663
G1 X134.128 Y103.5 E.05852
G1 X132.961 Y104.863 E.05626
G1 X131.507 Y105.985 E.05758
G1 X129.919 Y106.747 E.05523
G1 X129.445 Y107.865 E.03807
G1 X128.904 Y110.554 E.086
G1 X128.273 Y112.412 E.06152
M73 Q6 S8
G1 X127.688 Y113.429 E.03679
M73 P6 R8
G1 X126.952 Y114.308 E.03595
G1 X126.183 Y114.963 E.03167
G1 X125.472 Y115.404 E.02623
G1 X125.294 Y116.894 E.04705
G1 X125.036 Y117.585 E.02313
G1 X124.574 Y118.27 E.02591
G1 X123.9 Y118.846 E.0278
G1 X123.383 Y119.112 E.01823
G1 X122.703 Y119.279 E.02195
G1 X121.604 Y119.827 E.0385
G1 X120.663 Y120.098 E.0307
G1 X119.571 Y120.275 E.03469
G1 X118.232 Y120.316 E.042
G1 X117.527 Y120.239 E.02224
G1 X116.764 Y120.039 E.02473
G1 X115.747 Y119.509 E.03596
G1 X115.221 Y119.067 E.02154
G1 X114.798 Y118.546 E.02104
G1 X114.495 Y117.957 E.02077
G1 X114.339 Y117.365 E.0192
G1 X114.308 Y116.744 E.0195
G1 X114.472 Y116.163 E.01893
G1 X114.884 Y115.603 E.0218
G1 X115.403 Y115.274 E.01927
G1 X116.135 Y115.102 E.02358
G1 X116.812 Y115.083 E.02124
G1 X117.146 Y114.997 E.01081
G1 X119.109 Y114.139 E.06717
G1 X119.056 Y113.734 E.01281
G1 X118.672 Y112.929 E.02796
G1 X118.588 Y112.33 E.01896
G1 X118.598 Y111.805 E.01646
G1 X118.789 Y110.914 E.02857
G1 X119.186 Y110.047 E.0299
G1 X119.582 Y109.449 E.02249
G1 X120.404 Y108.522 E.03885
G1 X120.392 Y107.875 E.02029
G1 X120.509 Y107.261 E.0196
G1 X120.767 Y106.605 E.0221
G1 X121.156 Y106.088 E.02029
G1 X121.701 Y105.673 E.02148
G1 X120.534 Y104.665 E.04835
G1 X119.781 Y103.772 E.03662
G1 X119.057 Y102.598 E.04325
G1 X118.462 Y101.119 E.04998
G1 X118.113 Y99.294 E.05826
G1 X118.089 Y98.051 E.03898
G1 X118.342 Y96.34 E.05423
G1 X118.751 Y95.105 E.04079
G1 X119.326 Y93.964 E.04006
G1 X119.534 Y93.669 E.01132
M73 Q7 S8
M204 S1000
G1 X119.852 Y93.853 F10800
M204 S800
G1 F600
G1 X119.922 Y93.732 E.00438
G1 X120.898 Y92.549 E.04809
G1 X121.879 Y91.701 E.04066
G1 X123.248 Y90.876 E.05012
M73 P7 R8
G1 X124.745 Y90.327 E.04999
G1 X126.416 Y90.065 E.05303
G1 X127.356 Y90.065 E.02947
G1 X129.009 Y90.322 E.05245
G1 X130.556 Y90.891 E.05168
G1 X131.945 Y91.737 E.05099
G1 X132.582 Y92.266 E.02596
G1 X133.653 Y93.453 E.05013
G1 X134.478 Y94.812 E.04985
G1 X134.8 Y95.568 E.02576
G1 X135.214 Y97.16 E.05158
G1 X135.309 Y98.873 E.05379
G1 X135.24 Y99.632 E.0239
G1 X134.924 Y101.035 E.04509
G1 X134.678 Y101.711 E.02256
G1 X134.037 Y102.953 E.04382
G1 X133.237 Y104.029 E.04204
G1 X132.71 Y104.582 E.02395
G1 X131.302 Y105.668 E.05575
G1 X130.686 Y106.013 E.02214
G1 X129.598 Y106.459 E.03687
G1 X129.078 Y107.776 E.0444
G1 X128.539 Y110.459 E.0858
G1 X127.929 Y112.256 E.0595
M73 P7 R7
G1 X127.374 Y113.22 E.03488
G1 X126.682 Y114.045 E.03376
G1 X125.947 Y114.668 E.03021
G1 X125.11 Y115.16 E.03044
G1 X124.935 Y116.778 E.05103
G1 X124.701 Y117.41 E.02113
M73 Q7 S7
G1 X124.299 Y118.011 E.02267
G1 X123.688 Y118.534 E.02522
G1 X123.229 Y118.768 E.01615
G1 X122.543 Y118.916 E.022
G1 X121.466 Y119.476 E.03806
G1 X120.57 Y119.732 E.02922
G1 X119.537 Y119.9 E.03281
G1 X118.246 Y119.939 E.0405
G1 X117.596 Y119.868 E.0205
M73 Q8 S7
G1 X116.887 Y119.682 E.02298
G1 X115.977 Y119.21 E.03214
G1 X115.5 Y118.813 E.01946
M73 P8 R7
G1 X115.122 Y118.353 E.01867
G1 X114.853 Y117.838 E.01822
G1 X114.714 Y117.32 E.01682
G1 X114.68 Y116.814 E.0159
G1 X114.824 Y116.301 E.01671
G1 X115.159 Y115.862 E.01731
G1 X115.569 Y115.613 E.01504
G1 X117.262 Y115.357 E.05369
G1 X119.519 Y114.366 E.07729
G1 X119.419 Y113.602 E.02416
G1 X119.034 Y112.82 E.02733
G1 X118.963 Y112.295 E.01661
G1 X118.973 Y111.849 E.01399
G1 X119.15 Y111.025 E.02643
G1 X119.515 Y110.231 E.0274
G1 X119.89 Y109.667 E.02124
G1 X120.824 Y108.634 E.04367
G1 X120.769 Y107.894 E.02327
G1 X120.88 Y107.334 E.0179
G1 X121.107 Y106.771 E.01903
G1 X121.437 Y106.34 E.01702
G1 X121.789 Y106.081 E.0137
G1 X122.547 Y105.773 E.02565
G1 X121.313 Y104.884 E.04769
G1 X120.324 Y103.86 E.04464
G1 X119.394 Y102.429 E.05351
G1 X118.952 Y101.404 E.035
G1 X118.58 Y99.974 E.04633
G1 X118.462 Y98.832 E.036
G1 X118.555 Y97.187 E.05166
G1 X118.849 Y95.934 E.04035
G1 X119.282 Y94.838 E.03695
G1 X119.822 Y93.905 E.0338
M204 S1000
G1 X120.132 Y94.124 F10800
M204 S800
G1 F600
G1 X120.679 Y93.353 E.02964
G1 X121.738 Y92.291 E.04702
G1 X122.733 Y91.582 E.03831
G1 X124.128 Y90.915 E.04848
G1 X125.634 Y90.526 E.04877
G1 X126.445 Y90.441 E.02557
G1 X128.119 Y90.523 E.05255
G1 X129.662 Y90.921 E.04996
G1 X131.069 Y91.599 E.04897
G1 X132.321 Y92.539 E.04909
G1 X132.866 Y93.088 E.02426
G1 X133.777 Y94.312 E.04784
G1 X134.449 Y95.707 E.04855
G1 X134.68 Y96.445 E.02425
M73 Q9 S7
G1 X134.928 Y98.038 E.05055
G1 X134.867 Y99.574 E.0482
M73 P9 R7
G1 X134.743 Y100.264 E.02198
G1 X134.332 Y101.559 E.0426
G1 X133.515 Y103.06 E.05358
G1 X132.445 Y104.313 E.05166
G1 X131.11 Y105.343 E.05287
G1 X129.918 Y105.949 E.04193
G1 X129.287 Y106.168 E.02094
G1 X128.713 Y107.679 E.05068
G1 X128.174 Y110.363 E.08584
G1 X127.586 Y112.1 E.0575
G1 X127.069 Y112.998 E.03249
G1 X126.413 Y113.781 E.03203
G1 X125.732 Y114.358 E.02799
G1 X124.748 Y114.923 E.03558
G1 X124.575 Y116.664 E.05486
G1 X124.366 Y117.237 E.01912
G1 X124.023 Y117.754 E.01945
G1 X123.477 Y118.221 E.02253
G1 X123.077 Y118.422 E.01404
G1 X122.39 Y118.55 E.02191
G1 X121.89 Y118.884 E.01885
G1 X121.329 Y119.124 E.01913
G1 X120.477 Y119.367 E.02778
G1 X119.503 Y119.524 E.03093
G1 X118.259 Y119.562 E.03902
G1 X117.01 Y119.326 E.03985
G1 X116.206 Y118.91 E.02838
G1 X115.445 Y118.158 E.03355
G1 X115.211 Y117.716 E.01568
G1 X115.089 Y117.274 E.01438
G1 X115.058 Y116.825 E.01411
G1 X115.173 Y116.449 E.01233
G1 X115.429 Y116.128 E.01287
G1 X115.728 Y115.956 E.01082
G1 X116.254 Y115.847 E.01684
G1 X116.915 Y115.836 E.02073
G1 X117.377 Y115.716 E.01497
G1 X119.908 Y114.659 E.086
G1 X119.779 Y113.464 E.03769
G1 X119.526 Y113.072 E.01463
G1 X119.339 Y112.263 E.02603
G1 X119.401 Y111.528 E.02313
G1 X119.659 Y110.767 E.02519
G1 X120.198 Y109.885 E.03241
G1 X121.238 Y108.753 E.0482
G1 X121.142 Y107.959 E.02508
G1 X121.241 Y107.444 E.01644
G1 X121.425 Y106.974 E.01583
G1 X121.684 Y106.627 E.01358
M73 Q10 S7
G1 X122.271 Y106.287 E.02127
G1 X122.608 Y106.248 E.01064
G1 X123.103 Y106.379 E.01605
G1 X123.749 Y106.226 E.02082
M73 P10 R7
G1 X123.784 Y105.946 E.00885
G1 X122.675 Y105.405 E.03869
G1 X122.11 Y105.035 E.02118
G1 X121.076 Y104.141 E.04286
G1 X120.05 Y102.825 E.05232
G1 X119.551 Y101.887 E.03331
G1 X119.025 Y100.288 E.05278
G1 X118.839 Y98.827 E.04618
G1 X118.929 Y97.235 E.05
G1 X119.078 Y96.505 E.02336
G1 X119.454 Y95.377 E.03728
G1 X119.982 Y94.335 E.03663
G1 X120.097 Y94.173 E.00623
M204 S1000
G1 X120.425 Y94.362 F10800
M204 S800
G1 F600
G1 X120.534 Y94.173 E.00684
G1 X121.445 Y93.069 E.04488
G1 X122.311 Y92.319 E.03592
G1 X123.574 Y91.556 E.04627
G1 X124.952 Y91.052 E.04601
G1 X126.474 Y90.817 E.04829
G1 X127.299 Y90.817 E.02587
G1 X128.803 Y91.048 E.04771
G1 X130.213 Y91.563 E.04707
G1 X131.478 Y92.33 E.04638
G1 X132.06 Y92.812 E.02369
G1 X133.038 Y93.89 E.04564
G1 X133.806 Y95.155 E.0464
G1 X134.098 Y95.845 E.02349
G1 X134.472 Y97.295 E.04695
G1 X134.556 Y98.824 E.04801
G1 X134.495 Y99.516 E.02178
G1 X134.21 Y100.793 E.04102
G1 X133.987 Y101.409 E.02054
G1 X133.4 Y102.549 E.0402
G1 X132.654 Y103.55 E.03914
G1 X132.18 Y104.045 E.02149
G1 X130.919 Y105.019 E.04996
G1 X129.769 Y105.602 E.04043
G1 X128.974 Y105.877 E.02638
G1 X128.81 Y106.481 E.01962
G1 X128.348 Y107.582 E.03744
G1 X127.81 Y110.268 E.08589
G1 X127.242 Y111.944 E.05549
G1 X126.755 Y112.789 E.03058
M73 Q11 S7
G1 X126.143 Y113.516 E.0298
M73 P11 R7
G1 X125.518 Y114.047 E.02571
G1 X124.383 Y114.726 E.04147
G1 X124.207 Y116.579 E.05836
G1 X124.03 Y117.065 E.01622
G1 X123.745 Y117.499 E.01628
G1 X123.267 Y117.908 E.01972
G1 X122.927 Y118.076 E.01189
G1 X122.237 Y118.184 E.0219
G1 X121.712 Y118.552 E.0201
G1 X120.385 Y119.001 E.04392
G1 X118.824 Y119.192 E.04931
G1 X117.732 Y119.126 E.0343
G1 X117.133 Y118.969 E.01942
G1 X116.433 Y118.608 E.02469
G1 X115.767 Y117.96 E.02914
G1 X115.462 Y117.22 E.0251
G1 X115.431 Y116.886 E.01052
G1 X115.498 Y116.642 E.00793
G1 X115.841 Y116.318 E.01479
G1 X116.279 Y116.224 E.01405
G1 X116.946 Y116.212 E.02092
G1 X117.505 Y116.071 E.01808
G1 X119.666 Y115.127 E.07394
G1 X120.305 Y114.933 E.02094
G1 X120.151 Y113.402 E.04825
G1 X119.758 Y112.605 E.02786
G1 X119.772 Y111.597 E.03161
G1 X120.005 Y110.918 E.02251
G1 X120.495 Y110.118 E.02941
G1 X121.662 Y108.884 E.05325
G1 X121.518 Y107.99 E.02839
G1 X121.763 Y107.142 E.02768
G1 X121.964 Y106.881 E.01033
G1 X122.347 Y106.657 E.01391
G1 X122.798 Y106.656 E.01414
G1 X123.085 Y106.793 E.00997
G1 X123.775 Y106.604 E.02243
G1 X124.145 Y106.63 E.01163
G1 X124.992 Y106.391 E.02759
G1 X124.994 Y106.068 E.01013
G1 X124.845 Y105.895 E.00716
G1 X123.419 Y105.378 E.04756
G1 X122.324 Y104.724 E.03999
G1 X121.807 Y104.315 E.02067
G1 X120.913 Y103.388 E.04038
G1 X120.057 Y102.069 E.0493
G1 X119.549 Y100.807 E.04265
G1 X119.238 Y99.17 E.05225
G1 X119.25 Y97.688 E.04647
G1 X119.562 Y96.18 E.04828
G1 X119.965 Y95.16 E.03439
G1 X120.395 Y94.414 E.027
M204 S1000
G1 X120.695 Y94.627 F10800
M204 S800
G1 F600
G1 X121.249 Y93.846 E.03002
G1 X122.236 Y92.857 E.04381
M73 Q12 S7
G1 X123.108 Y92.237 E.03355
G1 X124.387 Y91.623 E.04448
M73 P12 R7
G1 X125.768 Y91.269 E.0447
G1 X126.503 Y91.193 E.02317
G1 X128.005 Y91.269 E.04715
G1 X129.403 Y91.629 E.04526
G1 X130.663 Y92.235 E.04384
G1 X131.8 Y93.084 E.04449
G1 X132.296 Y93.582 E.02204
G1 X133.124 Y94.688 E.04332
G1 X133.471 Y95.327 E.0228
G1 X133.954 Y96.651 E.04419
G1 X134.176 Y98.097 E.04587
G1 X134.122 Y99.458 E.04271
G1 X134.01 Y100.084 E.01994
G1 X133.641 Y101.258 E.03859
G1 X132.911 Y102.608 E.04812
G1 X131.915 Y103.776 E.04813
G1 X131.221 Y104.359 E.02842
G1 X130.195 Y104.994 E.03783
G1 X128.633 Y105.57 E.0522
G1 X128.454 Y106.358 E.02534
G1 X127.982 Y107.486 E.03834
G1 X127.445 Y110.173 E.08591
G1 X126.899 Y111.788 E.05345
G1 X126.451 Y112.566 E.02815
G1 X125.874 Y113.252 E.02811
G1 X125.303 Y113.737 E.02349
G1 X124.356 Y114.276 E.03417
G1 X124.065 Y114.529 E.01209
G1 X123.84 Y116.493 E.06198
G1 X123.465 Y117.246 E.02638
G1 X122.781 Y117.728 E.02624
G1 X122.082 Y117.816 E.02209
G1 X121.552 Y118.21 E.02071
G1 X120.294 Y118.635 E.04163
G1 X118.821 Y118.815 E.04653
G1 X117.783 Y118.753 E.0326
G1 X117.256 Y118.613 E.0171
G1 X116.659 Y118.307 E.02103
G1 X116.087 Y117.76 E.02482
G1 X115.83 Y117.136 E.02116
G1 X115.827 Y116.828 E.00966
G1 X115.963 Y116.677 E.00637
G1 X116.984 Y116.589 E.03213
G1 X117.629 Y116.427 E.02085
G1 X119.815 Y115.474 E.07477
G1 X120.639 Y115.264 E.02666
M73 P13 R7
M73 Q13 S7
G1 X120.619 Y113.999 E.03967
G1 X120.477 Y113.149 E.02702
G1 X120.13 Y112.536 E.02209
G1 X120.143 Y111.667 E.02725
G1 X120.343 Y111.084 E.01933
G1 X120.803 Y110.336 E.02753
G1 X122.112 Y108.986 E.05896
